public/avatar/body/176.svg

<svg xmlns:xlink="http://www.w3.org/1999/xlink" height="82" width="84.85" xmlns="http://www.w3.org/2000/svg"><g transform="translate(37.4 42.25)"><use height="38" transform="translate(-11.95 -17.45)" width="32.05" xlink:href="#a"/><use height="38.95" transform="translate(-12.45 -17.95)" width="33.05" xlink:href="#b"/><use height="25.1" transform="translate(-23.5 -2)" width="54.9" xlink:href="#c"/></g><defs><path d="M27.35 7.4q2.15 4.15 3.55 8.75 1.45 4.7 1.15 9.5-.35 4.95-4.2 8.1-3.8 3.2-8.75 4.05l-2.6.2q-3.6 0-7.05-1.15-4.65-1.6-7.1-5.5Q-.2 27.4.05 23q.2-4.4 2-9.3Q3.85 8.75 7 5.05 10.1 1.3 14.7.1l1.8-.1q1.9.05 3.7.8 4.75 2.05 7.15 6.6" fill="#fff" fill-rule="evenodd" transform="translate(-.05)" id="d"/><path d="M27.35 7.4Q24.95 2.85 20.2.8 17.55-.3 14.7.1 10.1 1.3 7 5.05q-3.15 3.7-4.95 8.65-1.8 4.9-2 9.3-.25 4.4 2.3 8.35 2.45 3.9 7.1 5.5 4.65 1.55 9.65.95 4.95-.85 8.75-4.05 3.85-3.15 4.2-8.1.3-4.8-1.15-9.5-1.4-4.6-3.55-8.75Z" fill="none" stroke="#1e1e1e" stroke-linecap="round" stroke-linejoin="round" transform="translate(.45 .5)" id="e"/><use height="38" width="32.05" xlink:href="#d" id="a"/><use height="38.95" width="33.05" xlink:href="#e" id="b"/><g id="c" fill-rule="evenodd"><path d="m18.8-.1.15.65-.1.15-.2.1-1.95 1.85-3.5 2.9-3.5 2.5-3.65 2-1.85.9-3.25-1.5-3.25-1.7-3.1-1.95-3.15-2.2-2.6-1.9-.3-.35.35-.35 2.5 2 1.45 1.1Q-1.9 7.8 4.2 10.45l1.8-.9 2.65-1.5 2.6-1.6L13 5.2l1.7-1.35 1.6-1.5L18.8-.1" fill="#333" transform="translate(23.5 2)"/><path d="m18.8-.1.4-.2 3.1-.7 2.75-.2 2.45.65Q28.6-.2 29.6.5l1.35 1.2q.75.85.2 1.95L30.25 5 28.2 6.75q-1.45.9-3.05 1.5l-3.95.95.3 3.4.15 5.9v.3l-.05 1.35-.1.65v.15l-.05-.05-2.35.65-3.75.7-2.8.45-2.85.2-2.75.2h-5.4l-2.7-.2-2.95-.25-2.95-.7-6.2-1.55-.15-4.5.05-3 .2-3-1.6-.3q-1.5-.25-2.9-.85-1.8-.6-3.35-1.65l-2.15-2.15q-.45-.7-.3-1.5.15-.9.8-1.45 1.3-1.05 2.9-1.45l3.25-.6 2.65.4 2.75.65-.35.35-3.6-.9-3.6.15-2.65.7q-2.25.8-1.65 2.95l.6 1.2q1.1 1.3 2.65 1.9l3.4 1.45q1.85.75 3.7.6l-.25 4.3v6.4l4.25 1.15 3.5.7 3.55.45 3.65.25h5.55l1.85-.2q5.95-.4 11.6-1.95l.05-2.05L21 13.5l-.4-4.75V8.7h.05l3.55-.55 3.2-1.5q1.45-.7 2.7-1.95l.6-1.2q.4-1.75-1.25-2.8Q27.9-.25 26.2-.5l-3.9-.05-3.1.8-.25.3-.15-.65" transform="translate(23.5 2)"/><path d="M19.55.85 19.6.8l4.2-.55q2.75 0 5.15 1.2l.6.85.35.65q-.45 1.4-2 2.3l-3.15 1.6L21.3 8l-3.2.45-3.25.65-2.95.6L14 8.3l2.95-2.4 2.9-2.65-.3-2.4m-8.6 9.5L16.9 9.2l1.7-.4.75-.1h.7l.2 10.05-11.9 1.55 2.1-1.3.95-.65-.1-1.9V14l-.2-2.4-1.9.7-4.35 1.1 5.25-2.6.85-.45" fill="#006" transform="translate(23.5 2)"/><path d="m10.75 10.4.2-.05-.85.45.65-.4m-22.6-8.6-.35 1.35 3.65 3.15 2.6 1.95L-3.5 10l-9.9-1.15q-2.45-1.05-4.75-2.5l-1.5-1.2-1.25-1.5.4-.5Q-19 1.9-17.1 1.9l3.65-.5 1.6.4m9.75 9 3.55 1.55q1.45.65 3.05 1l.35.05 4.35-1.1 1.9-.7.2 2.4v2.45l.1 1.9-.95.65-2.1 1.3-2.15.15H1.85l-2.2-.25-2.05-.15-2.1-.3-2.05-.35-2.05-.45-2.65-.65-.9-7.05v-1.7l3.55.2 2.95.45 3.55.6" fill="#009" transform="translate(23.5 2)"/><path d="m7.35 20.75 3.25-.15 3.3-.35 3.4-.5 3.4-.65-.05 1.2-2.15.45-3.1.55-2.75.35-2.65.25-2.7.15.05-1.3M6.25 10.7l2.2-1.05 1.65-1.1 3.2-2.1 2.85-2.4L18.8 1.5l.05-.05.4-.5.15.65.05.55-.05 1-3.15 2.8-1.5 1.3-2.9 2.15-2.65 1.65q-1.65 1-3.5 1.65l.35-.5.4-.6-.2-.9" fill="#4d88c4" transform="translate(23.5 2)"/><path d="m7.35 20.75-.05 1.3-2 .1H1.25l-2.05-.2-3.95-.4-3.85-.7-2.4-.55-.2-1.5 2.6.6 3.85.8 3.95.4 2.05.2H5.3l2.05-.05M6.25 10.7l.2.9-.4.6-.35.5-1.15-.05q-1.5-.1-2.9-.7Q0 11.3-1.5 10.45L-4.9 8.4l-3.65-2.75-3.1-2.55.2-.9 4.4 3.35L-4 7.5l3.2 1.8 3.3 1.6 1.7.7 2.05-.9" fill="#69c" transform="translate(23.5 2)"/><path d="m-11 20.3-1.3-.35v-1.5l1.1.35.2 1.5" fill="#bfd5ea" transform="translate(23.5 2)"/><path d="m-11.25 18.3-.75-.2-.15-6.85.9 7.05m-2.2-16.9-3.65.5q-1.9 0-3.4 1.25l-.4.5 1.25 1.5 1.5 1.2q2.3 1.45 4.75 2.5l-3.3-1-2.8-1.3q-1.15-.7-2.15-1.6l-.55-.9-.15-.6.85-1.3q2.3-1 4.7-.95l3.35.2" fill="#1515ff" transform="translate(23.5 2)"/><path d="m19.2.25 3.1-.8 3.9.05q1.7.25 3.25 1.2 1.65 1.05 1.25 2.8l-.6 1.2q-1.25 1.25-2.7 1.95l-3.2 1.5-3.55.55h-.05v.05l.4 4.75.15 4.95-.9.3-.2-10.05h-.7l-.75.1-1.7.4-5.95 1.15-.2.05 1.15-.7 2.95-.6 3.25-.65L21.3 8l3.45-1.15 3.15-1.6q1.55-.9 2-2.3l-.35-.65-.6-.85Q26.55.25 23.8.25L19.6.8l-.05.05-.1-.35-.25-.25m-32.05 17.6V13.7l.25-4.3q-1.85.15-3.7-.6l-3.4-1.45q-1.55-.6-2.65-1.9l-.6-1.2q-.6-2.15 1.65-2.95l2.65-.7 3.6-.15 3.6.9.3.35-.7.1-1.6-.4-3.35-.2q-2.4-.05-4.7.95l-.85 1.3.15.6.55.9q1 .9 2.15 1.6l2.8 1.3 3.3 1L-3.5 10l1.4.8-3.55-.6-2.95-.45-3.55-.2v1.7l.15 6.85-.85-.25" fill="#000051" transform="translate(23.5 2)"/><path d="m18.95.55.25-.3.25.25.1.35.3 2.4-2.9 2.65L14 8.3l-2.1 1.4-1.15.7-.65.4-5.25 2.6-.35-.05q-1.6-.35-3.05-1L-2.1 10.8l-1.4-.8-2.45-1.75-2.6-1.95-3.65-3.15.35-1.35.7-.1 2.6 1.9 3.15 2.2 3.1 1.95 3.25 1.7 3.25 1.5 1.85-.9 3.65-2 3.5-2.5 3.5-2.9L18.65.8l.2-.1.1-.15m2.2 17.9-.05 2.05q-5.65 1.55-11.6 1.95l-1.85.2H2.1l-3.65-.25-3.55-.45-3.5-.7-4.25-1.15v-2.25l.85.25.75.2 2.65.65 2.05.45 2.05.35 2.1.3 2.05.15 2.2.25H6.2l2.15-.15 11.9-1.55.9-.3M7.3 22.05l2.7-.15 2.65-.25 2.75-.35 3.1-.55 2.15-.45.05-1.2-3.4.65-3.4.5-3.3.35-3.25.15-2.05.05H1.25l-2.05-.2-3.95-.4-3.85-.8-2.6-.6-1.1-.35v1.5l1.3.35 2.4.55 3.85.7 3.95.4 2.05.2H5.3l2-.1M5.7 12.7q1.85-.65 3.5-1.65l2.65-1.65 2.9-2.15 1.5-1.3 3.15-2.8.05-1-.05-.55-.15-.65-.4.5-.05.05-2.65 2.55-2.85 2.4-3.2 2.1-1.65 1.1-2.2 1.05-2.05.9-1.7-.7-3.3-1.6L-4 7.5l-3.05-1.95-4.4-3.35-.2.9 3.1 2.55L-4.9 8.4l3.4 2.05q1.5.85 3.15 1.5 1.4.6 2.9.7l1.15.05" fill="#9ebede" transform="translate(23.5 2)"/><path d="m12.75 11.35.05-.05-.3.65q-1.4 2.7-4.15 2.05l.8-.7q1.6-1.4 3.6-1.95M.7 15l1.7 1.5q2.35 1.9 5.25 1.2 2.55-.5 4.55-1.9h.05l.3-.1v.05l-.3.2-.05.05-.85.5Q8.4 18.15 5.2 18.8q-.8.15-1.45-.5l-3.2-2.35-4.05-2.75 2.25.45q2.5.55 4.55 2.15l-1.55-.35-1.05-.5-.05.05H.7m-.95 2.5q.25.4.35.9l-.35.45q-2.4.7-4.15-1.2l-.95-1.55.35-.75q3.25-.55 4.75 2.15" fill="#fc0" transform="translate(23.5 2)"/><path d="m12.8 11.3-.05.05q-2 .55-3.6 1.95l-.8.7q2.7.9 5-.75 1.5-1 2.5-2.55l-3.05.6 2.25-.5 1.25-.1q-1.4 2.5-4.3 3.65-2.1.95-4.35.35l-.05-.25V14q2.4-1.9 5.2-2.7m-4.55 4.95q2.4-.2 4.75-1.05 1.5-.55 2.8-1.35-2.5 2.45-5.7 4l-1.65.8q-3.05 1.7-5.55-.4l-4.8-3.5q-1.75-1.2-3.45-2 3.1.15 6.1 1.1 2.35.7 4.6 1.85 1.3.65 2.9.55m3.95-.45-5.5 1q-1.9.15-3.4-1-2.05-1.6-4.55-2.15l-2.25-.45 4.05 2.75 3.2 2.35q.65.65 1.45.5 3.2-.65 6.15-2.3l.85-.5.45-.25.1-.1-.2.05-.3.1h-.05M.4 18.35v.55q-.85.85-2.15.55-3.85-.55-3.95-4 .95-1.15 2.4-.8 3.1.6 3.7 3.7m-.65-.85q-1.5-2.7-4.75-2.15l-.35.75.95 1.55q1.75 1.9 4.15 1.2l.35-.45q-.1-.5-.35-.9" fill="#d18903" transform="translate(23.5 2)"/><path d="M.7 14.95V15H.65l.05-.05m11.55 1 .3-.2.2-.1-.1.1-.4.2" fill="#cca400" transform="translate(23.5 2)"/><path d="m12.8 11.3 3.05-.6q-1 1.55-2.5 2.55-2.3 1.65-5 .75 2.75.65 4.15-2.05l.3-.65M.7 15v-.05l1.05.5 1.55.35q1.5 1.15 3.4 1l5.5-1q-2 1.4-4.55 1.9-2.9.7-5.25-1.2L.7 15" fill="#fca70a" transform="translate(23.5 2)"/><path d="M12.15-1.75q1 0 3.35 3.6 0 1.25-1.3 1.25-.8 0-2.1-1.75l-1.2-1.8q0-1.3 1.25-1.3M-4.35-2q-1 0-3.35 3.6 0 1.25 1.3 1.25.8 0 2.1-1.75l1.2-1.8Q-3.1-2-4.35-2" fill="#09c" transform="translate(23.5 2)"/></g></defs></svg>

<?xml version="1.0" encoding="UTF-8" standalone="no"?>
<svg xmlns:xlink="http://www.w3.org/1999/xlink" height="82.0px" width="84.85px" xmlns="http://www.w3.org/2000/svg">
  <g transform="matrix(1.0, 0.0, 0.0, 1.0, 37.4, 42.25)">
    <use height="38.0" transform="matrix(1.0, 0.0, 0.0, 1.0, -11.95, -17.45)" width="32.05" xlink:href="#sprite0"/>
    <use height="38.95" transform="matrix(1.0, 0.0, 0.0, 1.0, -12.45, -17.95)" width="33.05" xlink:href="#sprite1"/>
    <use height="25.1" transform="matrix(1.0, 0.0, 0.0, 1.0, -23.5, -2.0)" width="54.9" xlink:href="#shape2"/>
  </g>
  <defs>
    <g id="sprite0" transform="matrix(1.0, 0.0, 0.0, 1.0, -0.05, 0.0)">
      <use height="38.0" transform="matrix(1.0, 0.0, 0.0, 1.0, 0.05, 0.0)" width="32.05" xlink:href="#shape0"/>
    </g>
    <g id="shape0" transform="matrix(1.0, 0.0, 0.0, 1.0, -0.05, 0.0)">
      <path d="M27.35 7.4 Q29.5 11.55 30.9 16.15 32.35 20.85 32.05 25.65 31.7 30.6 27.85 33.75 24.05 36.95 19.1 37.8 L16.5 38.0 Q12.9 38.0 9.45 36.85 4.8 35.25 2.35 31.35 -0.2 27.4 0.05 23.0 0.25 18.6 2.05 13.7 3.85 8.75 7.0 5.05 10.1 1.3 14.7 0.1 L16.5 0.0 Q18.4 0.05 20.2 0.8 24.95 2.85 27.35 7.4" fill="#ffffff" fill-rule="evenodd" stroke="none"/>
    </g>
    <g id="sprite1" transform="matrix(1.0, 0.0, 0.0, 1.0, 0.45, 0.5)">
      <use height="38.95" transform="matrix(1.0, 0.0, 0.0, 1.0, -0.45, -0.5)" width="33.05" xlink:href="#shape1"/>
    </g>
    <g id="shape1" transform="matrix(1.0, 0.0, 0.0, 1.0, 0.45, 0.5)">
      <path d="M27.35 7.4 Q24.95 2.85 20.2 0.8 17.55 -0.3 14.7 0.1 10.1 1.3 7.0 5.05 3.85 8.75 2.05 13.7 0.25 18.6 0.05 23.0 -0.2 27.4 2.35 31.35 4.8 35.25 9.45 36.85 14.1 38.4 19.1 37.8 24.05 36.95 27.85 33.75 31.7 30.6 32.05 25.65 32.35 20.85 30.9 16.15 29.5 11.55 27.35 7.4 Z" fill="none" stroke="#1e1e1e" stroke-linecap="round" stroke-linejoin="round" stroke-width="1.0"/>
    </g>
    <g id="shape2" transform="matrix(1.0, 0.0, 0.0, 1.0, 23.5, 2.0)">
      <path d="M18.8 -0.1 L18.95 0.55 18.85 0.7 18.65 0.8 16.7 2.65 13.2 5.55 9.7 8.05 6.05 10.05 4.2 10.95 0.95 9.45 -2.3 7.75 -5.4 5.8 -8.55 3.6 -11.15 1.7 -11.45 1.35 -11.1 1.0 -8.6 3.0 -7.15 4.1 Q-1.9 7.8 4.2 10.45 L6.0 9.55 8.65 8.05 11.25 6.45 13.0 5.2 14.7 3.85 16.3 2.35 18.8 -0.1" fill="#333333" fill-rule="evenodd" stroke="none"/>
      <path d="M18.8 -0.1 L19.2 -0.3 22.3 -1.0 25.05 -1.2 27.5 -0.55 Q28.6 -0.2 29.6 0.5 L30.95 1.7 Q31.7 2.55 31.15 3.65 L30.25 5.0 28.2 6.75 Q26.75 7.65 25.15 8.25 L21.2 9.2 21.5 12.6 21.65 18.5 21.65 18.8 21.6 20.15 21.5 20.8 21.5 20.95 21.45 20.9 19.1 21.55 15.35 22.25 12.55 22.7 9.7 22.9 6.95 23.1 1.55 23.1 -1.15 22.9 -4.1 22.65 -7.05 21.95 -13.25 20.4 -13.4 15.9 -13.35 12.9 -13.15 9.9 -14.75 9.6 Q-16.25 9.35 -17.65 8.75 -19.45 8.15 -21.0 7.1 L-23.15 4.95 Q-23.6 4.25 -23.45 3.45 -23.3 2.55 -22.65 2.0 -21.35 0.95 -19.75 0.55 L-16.5 -0.05 -13.85 0.35 -11.1 1.0 -11.45 1.35 -15.05 0.45 -18.65 0.6 -21.3 1.3 Q-23.55 2.1 -22.95 4.25 L-22.35 5.45 Q-21.25 6.75 -19.7 7.35 L-16.3 8.8 Q-14.45 9.55 -12.6 9.4 L-12.85 13.7 -12.85 17.85 -12.85 20.1 -8.6 21.25 -5.1 21.95 -1.55 22.4 2.1 22.65 5.75 22.65 7.65 22.65 9.5 22.45 Q15.45 22.05 21.1 20.5 L21.15 18.45 21.0 13.5 20.6 8.75 20.6 8.7 20.65 8.7 24.2 8.15 27.4 6.65 Q28.85 5.95 30.1 4.7 L30.7 3.5 Q31.1 1.75 29.45 0.7 27.9 -0.25 26.2 -0.5 L22.3 -0.55 19.2 0.25 18.95 0.55 18.8 -0.1" fill="#000000" fill-rule="evenodd" stroke="none"/>
      <path d="M19.55 0.85 L19.6 0.8 23.8 0.25 Q26.55 0.25 28.95 1.45 L29.55 2.3 29.9 2.95 Q29.45 4.35 27.9 5.25 L24.75 6.85 21.3 8.0 18.1 8.45 14.85 9.1 11.9 9.7 14.0 8.3 16.95 5.9 19.85 3.25 19.55 0.85 M10.95 10.35 L16.9 9.2 18.6 8.8 19.35 8.7 20.05 8.7 20.25 18.75 8.35 20.3 10.45 19.0 11.4 18.35 11.3 16.45 11.3 14.0 11.1 11.6 9.2 12.3 4.85 13.4 10.1 10.8 10.95 10.35" fill="#000066" fill-rule="evenodd" stroke="none"/>
      <path d="M10.75 10.4 L10.95 10.35 10.1 10.8 10.75 10.4 M-11.85 1.8 L-12.2 3.15 -8.55 6.3 -5.95 8.25 -3.5 10.0 -13.4 8.85 Q-15.85 7.8 -18.15 6.35 L-19.65 5.15 -20.9 3.65 -20.5 3.15 Q-19.0 1.9 -17.1 1.9 L-13.45 1.4 -11.85 1.8 M-2.1 10.8 L1.45 12.35 Q2.9 13.0 4.5 13.35 L4.85 13.4 9.2 12.3 11.1 11.6 11.3 14.0 11.3 16.45 11.4 18.35 10.45 19.0 8.35 20.3 6.2 20.45 4.0 20.45 1.85 20.45 -0.35 20.2 -2.4 20.05 -4.5 19.75 -6.55 19.4 -8.6 18.95 -11.25 18.3 -12.15 11.25 -12.15 9.55 -8.6 9.75 -5.65 10.2 -2.1 10.8" fill="#000099" fill-rule="evenodd" stroke="none"/>
      <path d="M7.35 20.75 L10.6 20.6 13.9 20.25 17.3 19.75 20.7 19.1 20.65 20.3 18.5 20.75 15.4 21.3 12.65 21.65 10.0 21.9 7.3 22.05 7.35 20.75 M6.25 10.7 L8.45 9.65 10.1 8.55 13.3 6.45 16.15 4.05 18.8 1.5 18.85 1.45 19.25 0.95 19.4 1.6 19.45 2.15 19.4 3.15 16.25 5.95 14.75 7.25 11.85 9.4 9.2 11.05 Q7.55 12.05 5.7 12.7 L6.05 12.2 6.45 11.6 6.25 10.7" fill="#4d88c4" fill-rule="evenodd" stroke="none"/>
      <path d="M7.35 20.75 L7.3 22.05 5.3 22.15 3.25 22.15 1.25 22.15 -0.8 21.95 -4.75 21.55 -8.6 20.85 -11.0 20.3 -11.2 18.8 -8.6 19.4 -4.75 20.2 -0.8 20.6 1.25 20.8 3.25 20.8 5.3 20.8 7.35 20.75 M6.25 10.7 L6.45 11.6 6.05 12.2 5.7 12.7 4.55 12.65 Q3.05 12.55 1.65 11.95 0.0 11.3 -1.5 10.45 L-4.9 8.4 -8.55 5.65 -11.65 3.1 -11.45 2.2 -7.05 5.55 -4.0 7.5 -0.8 9.3 2.5 10.9 4.2 11.6 6.25 10.7" fill="#6699cc" fill-rule="evenodd" stroke="none"/>
      <path d="M-11.0 20.3 L-12.3 19.95 -12.3 18.45 -11.2 18.8 -11.0 20.3" fill="#bfd5ea" fill-rule="evenodd" stroke="none"/>
      <path d="M-11.25 18.3 L-12.0 18.1 -12.15 11.25 -11.25 18.3 M-13.45 1.4 L-17.1 1.9 Q-19.0 1.9 -20.5 3.15 L-20.9 3.65 -19.65 5.15 -18.15 6.35 Q-15.85 7.8 -13.4 8.85 L-16.7 7.85 -19.5 6.55 Q-20.65 5.85 -21.65 4.95 L-22.2 4.05 -22.35 3.45 -21.5 2.15 Q-19.2 1.15 -16.8 1.2 L-13.45 1.4" fill="#1515ff" fill-rule="evenodd" stroke="none"/>
      <path d="M19.2 0.25 L22.3 -0.55 26.2 -0.5 Q27.9 -0.25 29.45 0.7 31.1 1.75 30.7 3.5 L30.1 4.7 Q28.85 5.95 27.4 6.65 L24.2 8.15 20.65 8.7 20.6 8.7 20.6 8.75 21.0 13.5 21.15 18.45 20.25 18.75 20.05 8.7 19.35 8.7 18.6 8.8 16.9 9.2 10.95 10.35 10.75 10.4 11.9 9.7 14.85 9.1 18.1 8.45 21.3 8.0 24.75 6.85 27.9 5.25 Q29.45 4.35 29.9 2.95 L29.55 2.3 28.95 1.45 Q26.55 0.25 23.8 0.25 L19.6 0.8 19.55 0.85 19.45 0.5 19.2 0.25 M-12.85 17.85 L-12.85 13.7 -12.6 9.4 Q-14.45 9.55 -16.3 8.8 L-19.7 7.35 Q-21.25 6.75 -22.35 5.45 L-22.95 4.25 Q-23.55 2.1 -21.3 1.3 L-18.65 0.6 -15.05 0.45 -11.45 1.35 -11.15 1.7 -11.85 1.8 -13.45 1.4 -16.8 1.2 Q-19.2 1.15 -21.5 2.15 L-22.35 3.45 -22.2 4.05 -21.65 4.95 Q-20.65 5.85 -19.5 6.55 L-16.7 7.85 -13.4 8.85 -3.5 10.0 -2.1 10.8 -5.65 10.2 -8.6 9.75 -12.15 9.55 -12.15 11.25 -12.0 18.1 -12.85 17.85" fill="#000051" fill-rule="evenodd" stroke="none"/>
      <path d="M18.95 0.55 L19.2 0.25 19.45 0.5 19.55 0.85 19.85 3.25 16.95 5.9 14.0 8.3 11.9 9.7 10.75 10.4 10.1 10.8 4.85 13.4 4.5 13.35 Q2.9 13.0 1.45 12.35 L-2.1 10.8 -3.5 10.0 -5.95 8.25 -8.55 6.3 -12.2 3.15 -11.85 1.8 -11.15 1.7 -8.55 3.6 -5.4 5.8 -2.3 7.75 0.95 9.45 4.2 10.95 6.05 10.05 9.7 8.05 13.2 5.55 16.7 2.65 18.65 0.8 18.85 0.7 18.95 0.55 M21.15 18.45 L21.1 20.5 Q15.45 22.05 9.5 22.45 L7.65 22.65 5.75 22.65 2.1 22.65 -1.55 22.4 -5.1 21.95 -8.6 21.25 -12.85 20.1 -12.85 17.85 -12.0 18.1 -11.25 18.3 -8.6 18.95 -6.55 19.4 -4.5 19.75 -2.4 20.05 -0.35 20.2 1.85 20.45 4.0 20.45 6.2 20.45 8.35 20.3 20.25 18.75 21.15 18.45 M7.3 22.05 L10.0 21.9 12.65 21.65 15.4 21.3 18.5 20.75 20.65 20.3 20.7 19.1 17.3 19.75 13.9 20.25 10.6 20.6 7.35 20.75 5.3 20.8 3.25 20.8 1.25 20.8 -0.8 20.6 -4.75 20.2 -8.6 19.4 -11.2 18.8 -12.3 18.45 -12.3 19.95 -11.0 20.3 -8.6 20.85 -4.75 21.55 -0.8 21.95 1.25 22.15 3.25 22.15 5.3 22.15 7.3 22.05 M5.7 12.7 Q7.55 12.05 9.2 11.05 L11.85 9.4 14.75 7.25 16.25 5.95 19.4 3.15 19.45 2.15 19.4 1.6 19.25 0.95 18.85 1.45 18.8 1.5 16.15 4.05 13.3 6.45 10.1 8.55 8.45 9.65 6.25 10.7 4.2 11.6 2.5 10.9 -0.8 9.3 -4.0 7.5 -7.05 5.55 -11.45 2.2 -11.65 3.1 -8.55 5.65 -4.9 8.4 -1.5 10.45 Q0.0 11.3 1.65 11.95 3.05 12.55 4.55 12.65 L5.7 12.7" fill="#9ebede" fill-rule="evenodd" stroke="none"/>
      <path d="M12.75 11.35 L12.8 11.3 12.5 11.95 Q11.1 14.65 8.35 14.0 L9.15 13.3 Q10.75 11.9 12.75 11.35 M0.7 15.0 L2.4 16.5 Q4.75 18.4 7.65 17.7 10.2 17.2 12.2 15.8 L12.25 15.8 12.55 15.7 12.55 15.75 12.25 15.95 12.2 16.0 11.35 16.5 Q8.4 18.15 5.2 18.8 4.4 18.95 3.75 18.3 L0.55 15.95 -3.5 13.2 -1.25 13.65 Q1.25 14.2 3.3 15.8 L1.75 15.45 0.7 14.95 0.65 15.0 0.7 15.0 M-0.25 17.5 Q0.0 17.9 0.1 18.4 L-0.25 18.85 Q-2.65 19.55 -4.4 17.65 L-5.35 16.1 -5.0 15.35 Q-1.75 14.8 -0.25 17.5" fill="#ffcc00" fill-rule="evenodd" stroke="none"/>
      <path d="M12.8 11.3 L12.75 11.35 Q10.75 11.9 9.15 13.3 L8.35 14.0 Q11.05 14.9 13.35 13.25 14.85 12.25 15.85 10.7 L12.8 11.3 15.05 10.8 16.3 10.7 Q14.9 13.2 12.0 14.35 9.9 15.3 7.65 14.7 L7.6 14.45 7.6 14.0 Q10.0 12.1 12.8 11.3 M8.25 16.25 Q10.65 16.05 13.0 15.2 14.5 14.65 15.8 13.85 13.3 16.3 10.1 17.85 L8.45 18.65 Q5.4 20.35 2.9 18.25 L-1.9 14.75 Q-3.65 13.55 -5.35 12.75 -2.25 12.9 0.75 13.85 3.1 14.55 5.35 15.7 6.65 16.35 8.25 16.25 M12.2 15.8 L6.7 16.8 Q4.8 16.95 3.3 15.8 1.25 14.2 -1.25 13.65 L-3.5 13.2 0.55 15.95 3.75 18.3 Q4.4 18.95 5.2 18.8 8.4 18.15 11.35 16.5 L12.2 16.0 12.65 15.75 12.75 15.65 12.55 15.7 12.25 15.8 12.2 15.8 M0.4 18.35 L0.4 18.9 Q-0.45 19.75 -1.75 19.45 -5.6 18.9 -5.7 15.45 -4.75 14.3 -3.3 14.65 -0.2 15.25 0.4 18.35 M-0.25 17.5 Q-1.75 14.8 -5.0 15.35 L-5.35 16.1 -4.4 17.65 Q-2.65 19.55 -0.25 18.85 L0.1 18.4 Q0.0 17.9 -0.25 17.5" fill="#d18903" fill-rule="evenodd" stroke="none"/>
      <path d="M0.7 14.95 L0.7 15.0 0.65 15.0 0.7 14.95 M12.25 15.95 L12.55 15.75 12.75 15.65 12.65 15.75 12.25 15.95" fill="#cca400" fill-rule="evenodd" stroke="none"/>
      <path d="M12.8 11.3 L15.85 10.7 Q14.85 12.25 13.35 13.25 11.05 14.9 8.35 14.0 11.1 14.65 12.5 11.95 L12.8 11.3 M0.7 15.0 L0.7 14.95 1.75 15.45 3.3 15.8 Q4.8 16.95 6.7 16.8 L12.2 15.8 Q10.2 17.2 7.65 17.7 4.75 18.4 2.4 16.5 L0.7 15.0" fill="#fca70a" fill-rule="evenodd" stroke="none"/>
      <path d="M12.15 -1.75 Q13.15 -1.75 15.5 1.85 15.5 3.1 14.2 3.1 13.4 3.1 12.1 1.35 L10.9 -0.45 Q10.9 -1.75 12.15 -1.75" fill="#0099cc" fill-rule="evenodd" stroke="none"/>
      <path d="M-4.35 -2.0 Q-5.35 -2.0 -7.7 1.6 -7.7 2.85 -6.4 2.85 -5.6 2.85 -4.3 1.1 L-3.1 -0.7 Q-3.1 -2.0 -4.35 -2.0" fill="#0099cc" fill-rule="evenodd" stroke="none"/>
    </g>
  </defs>
</svg>
